assets/sonr-icons/face-id.svg

<svg xmlns="http://www.w3.org/2000/svg" width="24" height="24" fill="none" viewBox="0 0 24 24"><path fill="#000" d="M9.00002 3.00002H8.88402C8.06702 3.00002 7.50902 3.00002 7.02402 3.09602C5.04002 3.49002 3.49002 5.04102 3.09502 7.02402C2.99802 7.50902 2.99902 8.06602 2.99902 8.88402V9.00002C2.99902 9.55202 3.44702 10 3.99902 10C4.55102 10 4.99902 9.55202 4.99902 9.00002C4.99902 8.02302 5.00402 7.68002 5.05702 7.41402C5.29402 6.22402 6.22402 5.29402 7.41402 5.05702C7.67902 5.00402 8.02202 4.99902 9.00002 4.99902C9.55202 4.99902 10 4.55102 10 3.99902C10 3.44702 9.55202 3.00002 9.00002 3.00002ZM15 3.00002H15.116C15.933 3.00002 16.491 3.00002 16.976 3.09602C18.96 3.49002 20.51 5.04102 20.904 7.02402C21.001 7.50902 21 8.06602 21 8.88402V9.00002C21 9.55202 20.552 10 20 10C19.448 10 19 9.55202 19 9.00002C19 8.02302 18.995 7.68002 18.942 7.41402C18.705 6.22402 17.775 5.29402 16.585 5.05702C16.32 5.00402 15.977 4.99902 15 4.99902C14.448 4.99902 14 4.55102 14 3.99902C14 3.44702 14.448 3.00002 15 3.00002ZM8.88402 21H9.00002C9.55202 21 10 20.552 10 20C10 19.448 9.55202 19 9.00002 19C8.02302 19 7.68002 18.995 7.41402 18.942C6.22402 18.705 5.29402 17.775 5.05702 16.585C5.00402 16.32 4.99902 15.977 4.99902 15C4.99902 14.448 4.55102 14 3.99902 14C3.44702 14 2.99902 14.448 2.99902 15V15.116C2.99902 15.933 2.99902 16.491 3.09502 16.976C3.48902 18.96 5.04002 20.51 7.02402 20.904C7.50902 21.001 8.06602 21 8.88402 21ZM15 21H15.116C15.933 21 16.491 21 16.976 20.904C18.96 20.509 20.51 18.959 20.904 16.976C21.001 16.491 21 15.934 21 15.116V15C21 14.448 20.552 14 20 14C19.448 14 19 14.448 19 15C19 15.977 18.995 16.32 18.942 16.585C18.705 17.775 17.775 18.705 16.585 18.942C16.32 18.995 15.977 19 15 19C14.448 19 14 19.448 14 20C14 20.552 14.448 21 15 21ZM8.00002 9.00002C8.00002 8.44802 8.44802 8.00002 9.00002 8.00002C9.55202 8.00002 10 8.44802 10 9.00002V11C10 11.552 9.55202 12 9.00002 12C8.44802 12 8.00002 11.552 8.00002 11V9.00002ZM14 9.00002C14 8.44802 14.448 8.00002 15 8.00002C15.552 8.00002 16 8.44802 16 9.00002V11C16 11.552 15.552 12 15 12C14.448 12 14 11.552 14 11V9.00002ZM8.29302 14.293C8.68102 13.905 9.30702 13.902 9.69802 14.283L9.70602 14.291C9.72002 14.303 9.74702 14.326 9.78802 14.357C9.87002 14.419 10.008 14.511 10.198 14.607C10.576 14.796 11.174 15.002 12.003 15.002C12.832 15.002 13.43 14.796 13.807 14.607C13.998 14.512 14.135 14.419 14.217 14.357C14.258 14.326 14.285 14.303 14.299 14.291L14.307 14.283C14.698 13.902 15.325 13.906 15.712 14.293C16.098 14.679 16.097 15.324 15.71 15.71L15.705 15.715L15.676 15.743C15.66 15.758 15.64 15.777 15.615 15.798C15.566 15.841 15.499 15.896 15.416 15.958C15.249 16.084 15.009 16.242 14.7 16.397C14.077 16.708 13.174 17.003 12 17.003C10.826 17.003 9.92302 16.708 9.30002 16.397C8.99002 16.242 8.75202 16.084 8.58402 15.958C8.50002 15.895 8.43402 15.84 8.38402 15.798C8.35902 15.776 8.33902 15.758 8.32302 15.743L8.30202 15.723L8.28902 15.71C7.90202 15.324 7.90202 14.68 8.28802 14.293H8.29302Z"/></svg>

<svg xmlns="http://www.w3.org/2000/svg" width="24" height="24" fill="none"><path fill="currentColor" d="M9 3h-.116c-.817 0-1.375 0-1.86.096a5 5 0 0 0-3.929 3.928c-.097.485-.096 1.042-.096 1.86V9a1 1 0 0 0 2 0c0-.977.005-1.32.058-1.586a3 3 0 0 1 2.357-2.357c.265-.053.608-.058 1.586-.058A1 1 0 0 0 9 3m6 0h.116c.817 0 1.375 0 1.86.096a5 5 0 0 1 3.928 3.928c.097.485.096 1.042.096 1.86V9a1 1 0 0 1-2 0c0-.977-.005-1.32-.058-1.586a3 3 0 0 0-2.357-2.357c-.265-.053-.608-.058-1.585-.058A1 1 0 0 1 15 3M8.884 21H9a1 1 0 0 0 0-2c-.977 0-1.32-.005-1.586-.058a3 3 0 0 1-2.357-2.357c-.053-.265-.058-.608-.058-1.585a1 1 0 0 0-2 0v.116c0 .817 0 1.375.096 1.86a5 5 0 0 0 3.929 3.928c.485.097 1.042.096 1.86.096M15 21h.116c.817 0 1.375 0 1.86-.096a5 5 0 0 0 3.928-3.928c.097-.485.096-1.042.096-1.86V15a1 1 0 0 0-2 0c0 .977-.005 1.32-.058 1.585a3 3 0 0 1-2.357 2.357c-.265.053-.608.058-1.585.058a1 1 0 0 0 0 2M8 9a1 1 0 0 1 2 0v2a1 1 0 0 1-2 0zm6 0a1 1 0 0 1 2 0v2a1 1 0 0 1-2 0zm-5.707 5.293a1 1 0 0 1 1.405-.01l.008.008q.02.019.082.066c.082.062.22.154.41.25.378.189.976.395 1.805.395s1.427-.206 1.804-.395a2.6 2.6 0 0 0 .492-.316l.008-.008a1 1 0 0 1 1.405.01 1.01 1.01 0 0 1-.002 1.417l-.005.005-.029.028q-.024.023-.061.055a3 3 0 0 1-.199.16 4.7 4.7 0 0 1-.716.439c-.623.311-1.526.606-2.7.606s-2.077-.295-2.7-.606a4.7 4.7 0 0 1-.916-.599l-.061-.055-.021-.02-.013-.013a1.01 1.01 0 0 1-.001-1.417z"/></svg>
